X:1
T:Title
%%score { ( 1 3 ) | ( 2 4 ) }
L:1/8
M:9/8
K:C
V:1 treble nm="Grand Piano"
V:3 treble 
V:2 bass 
V:4 bass 
V:1
 z3 z2[Q:1/4=107] [EG] [CE]2 [EG] | [Ec]3- [Ec]2 [Ec] [GB]2 [FA] | %2
 [EG]3 [G,CE]2 [G,CE] [G,EG]2 [G,CE] | [B,D]3 E3 [G,DF]3 |[M:5/8] [G,CE]-[G,CE]- [G,CE]3 | %5
[M:2/4] [CEG] [G,CE]2 [G,EG] |[M:9/8] [Ec]3- [Ec]2 [Ec] [GB]2 [FA] | [EG]3 E3 E3 | D3- D2 B c2 ^F | %9
[M:3/4] G6 |[M:3/8] G3 |[M:9/8] .d6 z3 | [Ec]6 [Ec]2 [Fd] | .e6 z3 | d6 e2 d | .c6 z3 | %16
 [FA][EG][CE] [EG]3 [Gc]2 [GB] | .A6 z3 |[M:3/4] [Ec]6 |] %19
V:2
 z3 z2 [C,C] [C,G,]2 [C,G,] | [C,G,]3- [C,G,]2 [C,G,] [C,C]2 [C,C] | [C,C]3 C,2 C, C,2 C, | %3
 z3 C3 G,,3 |[M:5/8] C,-C,- C,3 |[M:2/4] C, C,2 C, |[M:9/8] [C,G,]3- [C,G,]2 [C,G,] [C,C]2 [C,C] | %7
 [C,C]3 [C,G,C]3 [C,G,C]3 | [D,G,B,]3- [D,G,B,]2 [D,G,D] [D,^F,D]2 [D,CD] |[M:3/4] [G,B,D]6 | %10
[M:3/8] G,3 |[M:9/8][K:treble] [G,B,F]2 [G,B,] [G,B,][G,B,F][G,CF] [G,DF][G,CF][G,B,F] | %12
 [C,C]6 [C,G,]2 [C,G,] | [C,C][C,C][C,C] [C,C][C,G,][C,C] [D,A,][D,A,][D,A,] | [G,B,F]6 [G,B,F]3 | %15
 [C,C]2 [C,G,] [C,G,][C,C][C,C] [C,C]2 [C,C] | [C,C][C,C][C,G,] [C,C]3 [E,C]2 [E,C] | %17
 [F,CF][F,C][F,C] [F,C][K:treble][F,A,F][F,A,F] [G,F][K:bass][G,,G,][G,,G,] |[M:3/4] [C,G,]6 |] %19
V:3
 x9 | x9 | x9 | G,6 z3 |[M:5/8] x5 |[M:2/4] x4 |[M:9/8] x9 | x9 | x9 |[M:3/4] x6 |[M:3/8] x3 | %11
[M:9/8] z2 F FGA Bcd | x9 | GGG G[Fd][Ec] [^Fc][FB][Fc] | x9 | E2 E E[^GB][Ac] [Bd][Ac][FA] | x9 | %17
 z FF Fdc B[FA][FB] |[M:3/4] x6 |] %19
V:4
 x9 | x9 | x9 | G,,6 z3 |[M:5/8] x5 |[M:2/4] x4 |[M:9/8] x9 | x9 | x9 |[M:3/4] x6 |[M:3/8] x3 | %11
[M:9/8][K:treble] x9 | x9 | x9 | x9 | x9 | x9 | x4[K:treble] x3[K:bass] x2 |[M:3/4] x6 |] %19

